web-components-icons/e500-image/SVG/increase-horizontal-spacing.svg

<svg xmlns="http://www.w3.org/2000/svg" viewBox="0 0 512 512"><defs><style>.cls-1{fill-rule:evenodd;}</style></defs><title>increase-horizontal-spacing</title><g id="increase_horizontal_spacing" data-name="increase horizontal spacing"><path class="cls-1" d="M480,96V256H384V192H288V352H192V192H96v96H32V64H96v96h96V0h96V160h96V96ZM335.73,352l-22.62,22.63L370.48,432l-57.37,57.37L335.73,512l80-80ZM64,432l80,80,22.63-22.63L109.25,432l57.38-57.37L144,352Z"/></g></svg>

<?xml version="1.0" encoding="utf-8"?>
<!-- Generator: Adobe Illustrator 24.2.0, SVG Export Plug-In . SVG Version: 6.00 Build 0)  -->
<svg version="1.1" id="Layer_1" xmlns="http://www.w3.org/2000/svg" xmlns:xlink="http://www.w3.org/1999/xlink" x="0px" y="0px"
	 width="512px" height="512px" viewBox="0 0 512 512" xml:space="preserve">
<path d="M480,96v160h-96v-64h-96v160h-96V192H96v96H32V64h64v96h96V0h96v160h96V96H480z M335.7,352l-22.6,22.6
	l57.4,57.4l-57.4,57.4l22.6,22.6l80-80L335.7,352z M64,432l80,80l22.6-22.6L109.3,432l57.4-57.4L144,352L64,432z"/>
</svg>
